X: 36099
T: Scholar, The
R: reel
M: 4/4
K: Dmajor
|:(3ABc|dfaf gfeg|fdAG FGA=c|BGFG E3g|fde^c dcBA|
dfaf gfeg|fdAG FGA=c|BGFG E3g|1 fde^c d2:|2 fde^c defg||
|:a3f dfaf|dfaf bagf|g3e =cege|=cege agfg|
a3f dfaf|dfaf bagf|g3f gbag|1 fde^c defg:|2 fde^c d2||

